images/cart.svg

<svg width="19" height="18" viewBox="0 0 19 18" fill="none" xmlns="http://www.w3.org/2000/svg">
<path fill-rule="evenodd" clip-rule="evenodd" d="M3.66412 1.80229C3.50428 1.80194 3.3502 1.82003 3.20378 1.85443C3.00307 1.41204 2.73794 1.01515 2.4364 0.713604C1.92459 0.201799 1.1174 0 0 0V1.8C0.682603 1.8 1.07541 1.8982 1.1636 1.9864C1.50378 2.32657 1.8 3.01776 1.8 3.6L1.80905 3.72728L2.69093 9.90046C1.21532 9.97702 0.0721779 11.1229 0.00110572 12.5554L0 13.5C0.0871391 14.9795 1.22648 16.1177 2.64892 16.1985L2.85323 16.1989C3.22356 17.2481 4.22398 18 5.4 18C6.5756 18 7.57571 17.2487 7.94636 16.2H10.0536C10.4243 17.2487 11.4244 18 12.6 18C14.0912 18 15.3 16.7912 15.3 15.3C15.3 13.8088 14.0912 12.6 12.6 12.6C11.4244 12.6 10.4243 13.3513 10.0536 14.4H7.94636C7.57571 13.3513 6.5756 12.6 5.4 12.6C4.2244 12.6 3.22429 13.3513 2.85364 14.4H2.7C2.24101 14.3725 1.82928 13.9612 1.79838 13.4461L1.8 12.6C1.82427 12.1332 2.23318 11.7243 2.7446 11.6989L4.52132 11.6993L4.5342 11.7H13.6052L13.738 11.6578C14.4204 11.4413 14.9667 10.9275 15.2253 10.2623L15.3201 10.0746L15.6282 9.46429C15.9469 8.83253 16.2656 8.19968 16.5762 7.58142C17.3369 6.06697 17.8153 5.1045 17.9213 4.86815C18.4654 3.65441 17.3632 2.72022 16.2366 2.70032L3.66412 1.80229ZM13.2924 9.89997H4.60154C4.54375 9.88391 4.49972 9.83495 4.4911 9.77399L3.60919 3.60063L16.104 4.4954C15.8854 4.94126 15.4879 5.73762 14.9676 6.77345L14.9546 6.79941C14.6576 7.39065 14.3393 8.02262 14.0211 8.65354L13.7134 9.26309L13.5968 9.49393L13.5529 9.59597C13.5058 9.72695 13.4125 9.83459 13.2924 9.89997ZM12.6 16.1999C13.097 16.1999 13.5 15.797 13.5 15.2999C13.5 14.8029 13.097 14.3999 12.6 14.3999C12.1029 14.3999 11.7 14.8029 11.7 15.2999C11.7 15.797 12.1029 16.1999 12.6 16.1999ZM6.3 15.2999C6.3 15.797 5.89706 16.1999 5.4 16.1999C4.90294 16.1999 4.5 15.797 4.5 15.2999C4.5 14.8029 4.90294 14.3999 5.4 14.3999C5.89706 14.3999 6.3 14.8029 6.3 15.2999Z" fill="black"/>
</svg>

<svg width="19" height="18" fill="none" xmlns="http://www.w3.org/2000/svg"><path fill-rule="evenodd" clip-rule="evenodd" d="M3.664 1.802c-.16 0-.314.018-.46.052a3.91 3.91 0 00-.768-1.14C1.925.202 1.117 0 0 0v1.8c.683 0 1.075.098 1.164.186.34.34.636 1.032.636 1.614l.01.127.88 6.173C1.216 9.977.073 11.123.002 12.555L0 13.5c.087 1.48 1.226 2.618 2.649 2.698h.204a2.701 2.701 0 005.093.002h2.108a2.701 2.701 0 100-1.8H7.946a2.701 2.701 0 00-5.092 0H2.7c-.459-.027-.87-.439-.902-.954L1.8 12.6c.024-.467.433-.876.945-.901H4.52l.013.001h9.071l.133-.042a2.362 2.362 0 001.487-1.396l.095-.187.308-.61a675.1 675.1 0 00.948-1.884c.76-1.514 1.24-2.477 1.345-2.713.544-1.214-.558-2.148-1.684-2.168L3.664 1.802zM13.292 9.9h-8.69a.153.153 0 01-.11-.126l-.883-6.173 12.495.894a314.03 314.03 0 01-1.136 2.278l-.013.026-.934 1.855-.308.61-.116.23-.044.102a.563.563 0 01-.26.304zm-.692 6.3a.9.9 0 100-1.8.9.9 0 000 1.8zm-6.3-.9a.9.9 0 11-1.8 0 .9.9 0 011.8 0z" fill="#000"/></svg>
